images/mobile-bottom.svg

<svg width="340" height="477" viewBox="0 0 340 477" fill="none" xmlns="http://www.w3.org/2000/svg">
<path fill-rule="evenodd" clip-rule="evenodd" d="M-196.37 17.2626L-176.05 20.1397C-155.729 23.0168 -115.089 28.771 -74.4486 25.8939C-33.8082 23.0168 6.83221 8.6313 47.4726 14.3855C88.113 20.1397 128.753 4.9664 169.394 4.9664C210.034 4.9664 250.675 23.0168 291.315 14.3855C331.956 5.7542 372.596 11.5084 413.236 11.5084C453.877 11.5084 494.517 5.7542 535.157 14.3855C575.798 23.0168 616.438 28.8756 657.079 28.8756C697.719 28.8756 738.36 23.0168 758.68 11.5084L779 0L765.37 477H745.05C724.729 477 684.089 477 643.449 477C602.808 477 562.168 477 521.527 477C480.887 477 440.247 477 399.606 477C358.966 477 318.325 477 277.685 477C237.044 477 196.404 477 155.764 477C115.123 477 74.4828 477 33.8425 477C-6.79796 477 -47.4384 477 -88.0788 477C-128.719 477 -169.36 477 -189.68 477H-210L-196.37 17.2626Z" fill="url(#paint0_linear_736_882)"/>
<defs>
<linearGradient id="paint0_linear_736_882" x1="287.969" y1="460.704" x2="287.969" y2="1.89979" gradientUnits="userSpaceOnUse">
<stop stop-color="#1D1359"/>
<stop offset="0.5" stop-color="#261D5C"/>
<stop offset="0.865" stop-color="#073C80"/>
</linearGradient>
</defs>
</svg>

<svg width="340" height="477" fill="none" xmlns="http://www.w3.org/2000/svg"><path fill-rule="evenodd" clip-rule="evenodd" d="m-196.37 17.263 20.32 2.877c20.321 2.877 60.961 8.631 101.601 5.754C-33.809 23.017 6.832 8.63 47.473 14.386c40.64 5.754 81.28-9.42 121.921-9.42 40.64 0 81.281 18.05 121.921 9.42 40.641-8.632 81.281-2.878 121.921-2.878 40.641 0 81.281-5.754 121.921 2.878 40.641 8.63 81.281 14.49 121.922 14.49 40.64 0 81.281-5.86 101.601-17.368L779 0l-13.63 477H-210l13.63-459.737z" fill="url(#a)"/><defs><linearGradient id="a" x1="287.969" y1="460.704" x2="287.969" y2="1.9" gradientUnits="userSpaceOnUse"><stop stop-color="#1D1359"/><stop offset=".5" stop-color="#261D5C"/><stop offset=".865" stop-color="#073C80"/></linearGradient></defs></svg>
